X:1
T:Piu tempo ho gia seguito
T:Jhan Gero
T:Source : Trium vocum cantiones---Nürnberg---J.Petreius---1541. Editor : André Vierendeels (22/04/16).
T:Notes : Original clefs : C2, C3, F3 Editorial accidentals above the staff Original note values have been halved m 33 in B : "C" notated as half note in original print
T:Piu tempo ho gia seguito
T:©
T:©
T:©
T:©
T:©
C:Jhan Gero
Z:©
%%score [ 1 2 3 ]
L:1/8
Q:1/4=120
M:2/2
K:C
V:1 treble nm="Soprano" snm="S"
V:2 treble-8 nm="Tenor" snm="T"
V:3 bass nm="Bass" snm="B"
V:1
 z8 | z4 D4 | C2 A,2 B,2 C2 | D4 A,2 A2- | A2 G2 F2 ED | E4 E4 | A6 GF | G4 c4 | B2 A4 G2 | A8 | %10
w: |Piu|temp' ho gia se-|gui- to, le|_ dol- ce'or- * *|me, di|vo- * *|i dol-|ce ben mi-|o,|
 E4 E2 E2 | G2 G2 D4 | F4 E2 E2 | A4 G4- | G4 z4 | z2 A2 G2 F2 | E2 D2 C3 B, | A,2 D4 C2 | D8- | %19
w: et me per|se- guir voi|pos' in o-|bli- o,|_|per sen- tier|er- ti fa- ti-|cos' e stra-|ni,|
 D4 z4 | z4 z2 A2- | A2 G2 A2 E2 | G4 F4 | E4 A4 | G2 E2 F2 D2 | C2 D2 E3 D | C2 D2 B,4 | %27
w: _|con-|* dot- t'ho la|mia vi-|ta, dal|prin- ci pio per|fin a l'ul- ti-|mi an- *|
 A,4 z2 A2 | B2 B2 c2 A2 | dcBA G2 c2- | cB B3 A A2- | A2 G2 A4 | z8 | z2 A2 B2 B2 | c2 c2 B3 A | %35
w: ni, spe-|ran- do pur da|voi _ _ _ _ ma-|* * don- * n'a-|* i- ta,||et mi- a|spe- me smar- *|
 GFED C2 c2- | c2 B2 c4 | z4 A4 | G2 E2 F2 F2 | E2 C2 D4 | C2 A,2 B,4 | A,4 A4 | c2 c2 G4 | B4 A4 | %44
w: * * * * * ri-|* * ta,|et|pers' ho'an- chor di|mie fa- ti-|che'l pre- *|gio, et|del mio tropp'|er- ror|
 G4 A2 c2 | B2 A4 G2 | A4 A4 | c2 c2 G4 | B4 A4 | G4 A2 c2 | B2 A4 G2 | A3 G FE D2- | D2 E2 F4 | %53
w: tar- di m'a-|veg- * *|gio, e|del mio tropp'|er- ror|tar- di m'a-|veg- * *|gio, m'a- * * *|* veg- *|
 E8 |] %54
w: gio.|
V:2
 z4 A4 | G2 E2 F2 G2 | A4 E4 | F4 F3 G | AB c4 B2 | c8 | A4 d4- | d2 e2 f2 e2 | dcBA B4 | %9
w: Piu|temp' ho gia se-|gui- to,|le dol- *|* * * ce'or-|me,|di vo-|* i dol- ce|ben _ _ _ mi-|
 A4 z2 A2 | A2 A2 c2 c2 | G4 B4 | A3 B cd e2- | e2 d2 e4 | e4 d2 c2 | B2 A2 z2 F2 | G2 G2 A3 G | %17
w: o, et|me per se- guir|vo- i|pos' in _ _ o-|* bli- o,|per sen- tier|er- ti fa-|ti- cos' _ e|
 F2 G2 E4 | D8 | z2 d4 c2 | d6 A2 | c2 B2 A4 | e4 d2 B2 | c3 B A2 d2 | B2 G2 A4- | A2 A2 GA B2- | %26
w: stra- * *|ni,|con- dot-|t'ho la|mia vi- ta,|dal prin- ci-|pio _ _ per|fin a l'ul-|* ti- mi _ _|
 BA A4 G2 | A8 | d4 e2 e2 | f2 d2 gfed | c2 e2 d3 c | B4 A2 d2 | B2 c3 B B2- | BA A4 G2 | A4 d4 | %35
w: _ _ an- *|ni,|spe- ran- do|per da voi _ _ _|_ ma- don- n'a-|i- ta, ma-|don- n'a- * i-||ta, et|
 e2 e2 f2 f2 | d4 c3 B/A/ | B4 A4 | e4 d2 B2 | c2 c2 B2 G2 | A2 F2 E4 | e8 | e4 e2 e2 | d4 c4 | %44
w: mia spe- m'e smar-|ri- * * *|* ta,|et pers' ho'an-|chor di mie fa-|ti- che'l pre-|gio|et del mio|tropp' er-|
 B4 c4 | d2 c2 B4 | A8 | e4 e2 e2 | d4 c4 | B4 c4 | d2 c2 B4 | A8- | A8- | A8 |] %54
w: ror tar-|di m'a- veg-|gio,|e del mio|tropp' er-|ror tar-|di m'a- veg-|gio.|_||
V:3
 D,4 C,2 A,,2 | B,,2 C,2 D,4 | A,,4 z2 A,,2 |"^#" D,3 C, D,E, F,2- | F,2 E,2 D,4 | C,8 | z4 D,4 | %7
w: Piu temp' ho|gia se- gui-|to, le|dol- * * * *|* * ce'or-|me,|di|
 G,4 F,2 C,2 | D,2 F,2 E,4 | A,,8- | A,,4 E,4 | E,2 E,2 G,2 G,2 | D,2 D,2 A,2 G,2 | F,4 E,4- | %14
w: vo- i dol-|ce ben mi-|o,|_ et|me per se- guir|voi pos' in o-|bli- o,|
 E,4 z2 A,2 | G,2 F,2 E,2 D,2 | C,2 B,,2 A,,2 C,2 | D,2 B,,2 A,,4 | D,4 z2 A,2- | A,2 G,2 A,2 E,2 | %20
w: _ per|sen- tier fa- ti-|cos' e stra- *||ni, con|_ dot- t'ho la|
 G,4 F,4 | E,4 A,4 | G,2 E,2 F,2 D,2 | C,2 C,2 D,2 D,2 | E,4 D,4 | F,4 E,2 E,2 | F,2 D,2 E,2 E,2 | %27
w: mia vi-|ta, dal|prin- ci- pio per|fin a l'ul- ti-|mi'an- ni,|dal prin- ci-|pio per fin a|
 F,3 E, D,2 C,2 | B,,4 A,,4 | z8 | z4 D,4 | E,2 E,2 F,2 D,2 | G,2 F,E, D,C, E,2 | D,3 C, B,,4 | %34
w: l'ul- ti- mi an-|* ni,||spe-|ran- do pur da|voi _ _ _ _ ma-|don- n'a- i-|
 A,,2 A,2 B,2 B,2 | C2 C2 A,4 | G,4 z2 A,2 | G,2 E,2 F,2 F,2 | E,2 C,2 D,4 | C,2 A,,2 B,,4 | %40
w: ta, et mia spe-|me smar- ri-|ta, et|pers' an- chor di|mie fa- ti-||
"^#""^#" A,,2 A,3 G,G,F,/G,/ |"^#""^#" A,8 | A,4 C2 C2 | G,4 A,4 | E,4 A,4 | G,2 A,2 E,4 | F,8 | %47
w: che'l pre- * * * *|gio|et- del- mio-|tropp' er-|ror tar-|di m'a- veg-|gio,|
 z2 A,2 C2 C2 | G,4 A,4 | E,4 A,4 | G,2 A,2 E,4 | F,3 E, D,C, D,2- | D,2 C,2 D,4 | A,,8 |] %54
w: e del mio|tropp' er-|ror tar-|di m'a- veg-|||gio.|

